X: 1
T: Skye Dance I
C: Alasdair Fraser
S: handwritten page of unknown origin from Concord Slow Scottish Session collection
L: 1/8
M: C
K: A
|: "A"AAeA c2BA | "G"B2BB "D"d2f2 | "A"AAeA c2BA | "G"B2BB "D"dA"A"Ae :|
|: "A"aeed c2BA | "A"AAeA    c2e2 | "A"aeed c2BA | "G"B2BB "D"dA"A"Ae :|
